X: 1
T: Mount Hills
M: 2/4
L: 1/8
R: polka
K: Gmaj
D|Gd .BB|A/2B/2A/2G/2 FD|Gd .BB|dc/2B/2 A2|
Gd .BB|A/2B/2A/2G/2 FD|GF/2E/2 cB/2A/2|.FF G:|
z|:F>G .AB|cB AG/2F/2|.GE cd|B2 A2|
d/2e/2d/2c/2 .BB|.GG EB|cB/2A/2 G/2F/2G/2A/2|A2 G2:|
